X:238
T:Polska fr{\aa}n H\"alleforsn\"as
R:sl\"angpolska
H:efter Fredrik Wilhelm Larsson, H\"alleforsn\"as
Z:id:hn-sp-238
M:3/4
L:1/16
K:Am
g3f e2d2 e2c2 | c2Bc d2c2 B2A2 | E3A A2B2 c2d2 | e2fe d2ef e4 |
g3f e2d2 e2c2 | c2Bc d2c2 B2A2 | E3A A2B2 c2B2 | G2BG A8 :|
|: E4 A4 B4 | c2Bc d2c2 B2A2 | E3A A2B2 c2d2 | e2fe d2ef e4 |
E4 A4 B4 | c2Bc d2c2 B2A2 | E3A A2B2 c2B2 | G2BG A8 :|

